public/static/icons/network.svg

<svg width="30" height="34" viewBox="0 0 30 34" fill="none" xmlns="http://www.w3.org/2000/svg">
<path d="M23.3989 7.11294H29.1315C29.5125 7.11294 29.8215 6.80392 29.8215 6.42329V0.689576C29.8215 0.30888 29.5125 0 29.1315 0H23.3989C23.0175 0 22.7088 0.308949 22.7088 0.689576V2.41835H14.8845C14.2555 2.41835 13.7464 2.9279 13.7464 3.55637V15.8618H9.71428V13.1567C9.71428 12.6461 9.30078 12.2321 8.78957 12.2321H1.10314C0.59172 12.2321 0.178223 12.6461 0.178223 13.1567V20.8438C0.178223 21.3544 0.591651 21.7684 1.10314 21.7684H8.78964C9.30078 21.7684 9.71435 21.3544 9.71435 20.8438V18.138H13.7464V30.4435C13.7464 31.0719 14.2555 31.5815 14.8846 31.5815H22.7089V33.3103C22.7089 33.6909 23.0177 33.9999 23.3991 33.9999H29.1317C29.5126 33.9999 29.8217 33.6908 29.8217 33.3103V27.5766C29.8217 27.1959 29.5126 26.8869 29.1317 26.8869H23.3991C23.0177 26.8869 22.7089 27.196 22.7089 27.5766V29.3054H16.0227V18.1381H22.7089V19.8669C22.7089 20.2476 23.0177 20.5564 23.3991 20.5564H29.1317C29.5126 20.5564 29.8217 20.2476 29.8217 19.8669V14.1332C29.8217 13.7526 29.5126 13.4436 29.1317 13.4436H23.3991C23.0177 13.4436 22.7089 13.7526 22.7089 14.1332V15.862H16.0227V4.69459H22.7089V6.42329C22.7088 6.80392 23.0175 7.11294 23.3989 7.11294Z" fill="black" fill-opacity="0.2"/>
</svg>

<svg width="30" height="34" fill="none" xmlns="http://www.w3.org/2000/svg"><path d="M23.399 7.113h5.732a.69.69 0 0 0 .69-.69V.69a.69.69 0 0 0-.69-.69H23.4a.69.69 0 0 0-.69.69v1.728h-7.825c-.629 0-1.138.51-1.138 1.138v12.306H9.714v-2.705a.924.924 0 0 0-.924-.925H1.103a.924.924 0 0 0-.925.925v7.687c0 .51.414.924.925.924H8.79a.924.924 0 0 0 .924-.924v-2.706h4.032v12.305c0 .629.51 1.138 1.139 1.138h7.824v1.73c0 .38.309.689.69.689h5.733c.38 0 .69-.31.69-.69v-5.733a.69.69 0 0 0-.69-.69h-5.733a.69.69 0 0 0-.69.69v1.728h-6.686V18.138h6.686v1.729c0 .38.309.69.69.69h5.733a.69.69 0 0 0 .69-.69v-5.734a.69.69 0 0 0-.69-.69h-5.733a.69.69 0 0 0-.69.69v1.729h-6.686V4.695h6.686v1.728c0 .38.308.69.69.69Z" fill="#000" fill-opacity=".2"/></svg>
